public/assets/images/icons/black/export/folder-lock-empty2.svg

<svg width="16" height="16" xmlns="http://www.w3.org/2000/svg" viewBox="0 0 16 16" shape-rendering="geometricPrecision"><defs><mask id="a"><rect fill="#fff" width="100%" height="100%"/><path d="M13.848-1.1L12.051.695l.286.287A4.455 4.455 0 0 0 9.23 5.236v.987h2.626v-.988c0-.491.191-.954.538-1.302l.03-.03 1.425 1.421 3.212-3.213L13.848-1.1z"/></mask></defs><path d="M13.848-.04l-.736.735.821.821h-.234l-.156.008A3.722 3.722 0 0 0 9.98 5.235v.237h1.126v-.237c0-.691.27-1.343.759-1.833a2.579 2.579 0 0 1 1.833-.759h.3l-.886.887.735.734L16 2.111 13.848-.04z" fill="#cb1800"/><g mask="url(#a)"><path d="M8.001 12.153a.466.466 0 0 0 .466-.466V10.4a.467.467 0 1 0-.935 0v1.287a.469.469 0 0 0 .469.466z"/><path d="M7.394 4.755l-.816-1.923h-3.78l-.816 1.923H.861V14h14.278V4.755H7.394zM5.997 7.961a2.003 2.003 0 0 1 4.005 0v.618h-.76v-.618a1.242 1.242 0 1 0-2.485 0v.618h-.76v-.618zm4.656 5.018H5.346V9.106h5.307v3.873z"/></g></svg>

<?xml version="1.0"?><!DOCTYPE svg PUBLIC "-//W3C//DTD SVG 1.1//EN" "http://www.w3.org/Graphics/SVG/1.1/DTD/svg11.dtd"><svg width="16px" height="16px" xmlns="http://www.w3.org/2000/svg" viewBox="0 0 16 16" shape-rendering="geometricPrecision" fill="#000"><defs><mask id="export-path"><rect fill="#fff" width="100%" height="100%"/><path d="M13.848-1.1l-1.797,1.795l0.286,0.287c-1.812,0.575-3.107,2.263-3.107,4.254v0.987h2.626 V5.235c0-0.491,0.191-0.954,0.538-1.302c0.01-0.01,0.021-0.02,0.03-0.03l1.425,1.421l3.212-3.213L13.848-1.1z" fill="#000"/></mask></defs><path id="export" display="inline" d="M13.848-0.04l-0.736,0.735l0.821,0.821h-0.234 l-0.156,0.008c-1.978,0.084-3.563,1.714-3.563,3.711v0.237h1.126V5.235c0-0.691,0.27-1.343,0.759-1.833 c0.49-0.489,1.141-0.759,1.833-0.759h0.237V2.643h0.063L13.112,3.53l0.735,0.734L16,2.111L13.848-0.04z" fill="#cb1800"/><g mask="url(#export-path)"><g><path d="M8.001,12.153c0.258,0,0.466-0.209,0.466-0.466v-1.287c0-0.257-0.208-0.466-0.468-0.466 c-0.257,0-0.467,0.209-0.467,0.466v1.287C7.533,11.944,7.743,12.153,8.001,12.153z"/><path d="M7.394,4.755L6.578,2.832H2.798L1.982,4.755H0.861V14h14.278V4.755H7.394z M5.997,7.961c0-1.106,0.897-2.003,2.003-2.003 c1.106,0,2.002,0.897,2.002,2.003v0.618h-0.76V7.961c0-0.687-0.556-1.243-1.242-1.243c-0.686,0-1.243,0.555-1.243,1.243v0.618 h-0.76V7.961z M10.653,12.979H5.346V9.106h5.307V12.979z"/></g></g></svg>
